!!!COM: Scriabin, Alexander
!!!OTL@@FR: Mazurka en fa dièse majeur
!!!OTL@@EN: Mazurka in F# Major
!!!OPR@@FR: 9 Mazurkas
!!!OPR@@EN: 9 Mazurkas
!!!OPS: 25
!!!ONM: 6
!!!ODT: 1899
!!!AGN: Mazurka
**kern	**kern	**dynam
*staff2	*staff1	*staff1/2
*Ipiano	*Ipiano	*
*clefF4	*clefG2	*
*k[f#c#g#d#a#e#]	*k[f#c#g#d#a#e#]	*
*F#:	*F#:	*
*M3/4	*M3/4	*
=1	=1	=1
*^	*^	*
2.FF# 2.C#	4Gn	2.B	8d#L	.
.	.	.	8e#J	.
.	2G#X	.	2c#	.
*v	*v	*	*	*
=2	=2	=2	=2
8c#L	2B	8e#L	.
[8C#J	.	8f#J	.
4FF# 4C#]	.	4c#	.
8c#L	[4B	8d#L 8f#	.
[8C#J	.	8e#J 8g#	.
=3	=3	=3	=3
*	*	*^	*
4FF# 4C#]	4r	4B]	4c#	.
4c#	2B	4f#	8g#L	.
.	.	.	8a#	.
[4C#	.	[4e#	8cc#	.
.	.	.	8c#J	.
=4	=4	=4	=4	=4
*^	*	*	*	*
2.FF#	2C#]	2.A#	4e#]	4a#	.
.	.	.	8d#L	4r	.
.	.	.	8e#	.	.
.	4c#	.	8c#	4r	.
.	.	.	8d#J	.	.
*v	*v	*	*	*	*
=5	=5	=5	=5	=5
4GG#	4G#	4.c#	4e#	.
8AA#L	4F#	.	8d#L	.
8GG#J	.	8B#X	8e#J	.
4C#	8.E#	8.G#	8.c#	.
.	16r	16r	16r	.
*	*	*v	*v	*
=6	=6	=6	=6
8.A#L	2f# 2cc#	4ee#	.
16D#Jk	.	.	.
4A#	.	4dd#	.
4G#	4f# 4b#X	4ee#	.
=7	=7	=7	=7
8.c#L	8.f#L	2.g# 2.cc#	.
16G#Jk	16d#Jk	.	.
2c#	2e#	.	.
=8	=8	=8	=8
*^	*	*	*
4r	8.A#L	2.d# 2.f#	2cc#	.
.	[16G#Jk	.	.	.
4.D#	2G#]	.	.	.
.	.	.	4bn	.
8D#	.	.	.	.
=9	=9	=9	=9	=9
*	*	*	*^	*
4r	8.c#L	2.d#	2f#	4a#	.
.	[16BJk	.	.	.	.
4.D#	2B]	.	.	4g#	.
.	.	.	4r	4d#	.
8D#	.	.	.	.	.
*	*	*	*v	*v	*
=10	=10	=10	=10	=10
4GG#	2.B	4d#	8f#L	.
.	.	.	8g#J	.
[2D#	.	[2f#	4a#	.
.	.	.	8g#L	.
.	.	.	8bJ	.
=11	=11	=11	=11	=11
2D#]	2B	2f#] 2g#	4.ff#	.
.	.	.	8ee#	.
4D#	4A#	4f# 4a#	8dd#L	.
.	.	.	8a#J	.
=12	=12	=12	=12	=12
4r	8.A#L	2.d# 2.f#	2cc#	.
.	[16G#Jk	.	.	.
4.D#	2G#]	.	.	.
.	.	.	4b	.
8D#	.	.	.	.
=13	=13	=13	=13	=13
*	*	*	*^	*
4r	8.c#L	2.d#	2f#	4a#	.
.	[16BJk	.	.	.	.
4.D#	2B]	.	.	4g#	.
.	.	.	4r	4d#	.
8D#	.	.	.	.	.
*	*	*	*v	*v	*
=14	=14	=14	=14	=14
4.GG#	2.B	4d#	8f#L	.
.	.	.	8g#J	.
.	.	4f#	4a#	.
4.C#	.	.	.	.
.	.	4e#	4g#	.
=15	=15	=15	=15	=15
2F#	2A#	2c#	8a#L	.
.	.	.	8g#J	.
.	.	.	4f#	.
4FF# 4C#	4F#	4A#	4c#	.
=16	=16	=16	=16	=16
2.FF# 2.C#	4Gn	2.B	8d#L	.
.	.	.	8e#J	.
.	2G#X	.	2c#	.
*v	*v	*	*	*
=17	=17	=17	=17
8c#L	2B	8e#L	.
[8C#J	.	8f#J	.
4FF# 4C#]	.	4c#	.
8c#L	[4B	8d#L 8f#	.
[8C#J	.	8e#J 8g#	.
=18	=18	=18	=18
*	*	*^	*
4FF# 4C#]	4r	4B]	4c#	.
4c#	2B	4f#	8g#L	.
.	.	.	8a#	.
[4C#	.	[4e#	8cc#	.
.	.	.	8c#J	.
=19	=19	=19	=19	=19
*^	*	*	*	*
2.FF#	2C#]	2.A#	4e#]	4a#	.
.	.	.	8d#L	4r	.
.	.	.	8e#	.	.
.	4c#	.	8c#	4r	.
.	.	.	8d#J	.	.
*v	*v	*	*	*	*
=20	=20	=20	=20	=20
4GG#	4G#	4.c#	4e#	.
8AA#L	4F#	.	8d#L	.
8GG#J	.	8B#X	8e#J	.
4C#	8.E#	8.G#	8.c#	.
.	16r	16r	16r	.
*	*	*v	*v	*
=21	=21	=21	=21
8.A#L	2f# 2cc#	4ee#	.
16D#Jk	.	.	.
4A#	.	4dd#	.
4G#	4f# 4b#X	4ee#	.
=22	=22	=22	=22
8.c#L	8.f#L	2.g# 2.cc#	.
16G#Jk	16d#Jk	.	.
2c#	2e#	.	.
=23	=23	=23	=23
*^	*	*	*
4r	8.A#L	2.d# 2.f#	2cc#	.
.	[16G#Jk	.	.	.
4.D#	2G#]	.	.	.
.	.	.	4bn	.
8D#	.	.	.	.
=24	=24	=24	=24	=24
*	*	*	*^	*
4r	8.c#L	2.d#	2f#	4a#	.
.	[16BJk	.	.	.	.
4.D#	2B]	.	.	4g#	.
.	.	.	4r	4d#	.
8D#	.	.	.	.	.
*	*	*	*v	*v	*
=25	=25	=25	=25	=25
4GG#	2.B	4d#	8f#L	.
.	.	.	8g#J	.
[2D#	.	[2f#	4a#	.
.	.	.	8g#L	.
.	.	.	8bJ	.
=26	=26	=26	=26	=26
2D#]	2B	2f#] 2g#	4.ff#	.
.	.	.	8ee#	.
4D#	4A#	4f# 4a#	8dd#L	.
.	.	.	8a#J	.
=27	=27	=27	=27	=27
4r	8.A#L	2.d# 2.f#	2cc#	.
.	[16G#Jk	.	.	.
4.D#	2G#]	.	.	.
.	.	.	4b	.
8D#	.	.	.	.
=28	=28	=28	=28	=28
*	*	*	*^	*
4r	8.c#L	2.d#	2f#	4a#	.
.	[16BJk	.	.	.	.
4.D#	2B]	.	.	4g#	.
.	.	.	4r	4d#	.
8D#	.	.	.	.	.
*	*	*	*v	*v	*
=29	=29	=29	=29	=29
4.GG#	2.B	4d#	8f#L	.
.	.	.	8g#J	.
.	.	4f#	4a#	.
4.C#	.	.	.	.
.	.	4e#	4g#	.
=30	=30	=30	=30	=30
2F#	2.A#	2c#	8a#L	.
.	.	.	8g#J	.
.	.	.	4f#	.
4E#	.	4A#	4c#	.
=31	=31	=31	=31	=31
4r	8.E#L	2.A# 2.c#	2g#	.
.	[16D#Jk	.	.	.
4.AA#	2D#]	.	.	.
.	.	.	4f#	.
8AA#	.	.	.	.
=32	=32	=32	=32	=32
*	*	*	*^	*
4r	8.G#L	2.A#	2c#	4e#	.
.	[16F#Jk	.	.	.	.
4.AA#	2F#]	.	.	4d#	.
.	.	.	4r	4A#	.
8AA#	.	.	.	.	.
*	*	*	*v	*v	*
=33	=33	=33	=33	=33
4DD#	2.F#	4A#	8c#L	.
.	.	.	8d#J	.
[2AA#	.	[2c#	4e#	.
.	.	.	8d#L	.
.	.	.	8f#J	.
=34	=34	=34	=34	=34
2AA#]	2F#	2c#] 2d#	4.cc#	.
.	.	.	8b#X	.
4AA#	4E#	4c# 4e#	8a#L	.
.	.	.	8e#J	.
=35	=35	=35	=35	=35
4r	8.E#L	2.A# 2.c#	2g#	.
.	[16D#Jk	.	.	.
4.AA#	2D#]	.	.	.
.	.	.	4f#	.
8AA#	.	.	.	.
=36	=36	=36	=36	=36
*	*	*	*^	*
4r	8.G#L	2.A#	2c#	4e#	.
.	[16F#Jk	.	.	.	.
4.AA#	2F#]	.	.	4d#	.
.	.	.	4r	4A#	.
8AA#	.	.	.	.	.
*	*	*	*v	*v	*
*	*v	*v	*	*
*v	*v	*	*
=37	=37	=37
4DD#	8F#L 8c# 8d#	.
.	8G#J 8c# 8e#	.
4D#	4A# 4c# 4f#	.
8.AA#L	4F# 4c# 4e#	.
[16GG#Jk	.	.
=38	=38	=38
*	*^	*
*	*	*^	*
4..GGG# 4..GG#]	4.F#	2c#	8.e#L	.
.	.	.	16d#Jk	.
.	.	.	4G#	.
.	8r	.	.	.
[16GG#	.	.	.	.
4GG#] 4G#	4r	4B#X	8r	.
.	.	.	8f# 8a#	.
*	*	*v	*v	*
*	*v	*v	*
=39	=39	=39
*^	*	*
2GG#	2.F# 2.G#	8A# 8c#	.
.	.	8r	.
.	.	4.B#X 4.d#	.
4CC#	.	.	.
.	.	8f# 8a#	.
=40	=40	=40	=40
2GG#	2.F# 2.G#	8B#XL 8d#	.
.	.	16r	.
.	.	16c#Jk 16e#	.
.	.	8c#L 8e#	.
.	.	8B#J 8d#	.
4CC#	.	8r	.
.	.	8a# 8cc#	.
=41	=41	=41	=41
*	*^	*	*
2GG#	4E#	2.G#	8c# 8e#	.
.	.	.	8r	.
.	2D#	.	4.d# 4.f#	.
4CC#	.	.	.	.
.	.	.	8a# 8cc#	.
=42	=42	=42	=42	=42
2GG#	2.C#	2.G#	8e#L 8g#	.
.	.	.	16r	.
.	.	.	16f#Jk 16a#	.
.	.	.	8f#L 8a#	.
.	.	.	8e#J 8g#	.
4CC#	.	.	8r	.
.	.	.	8a# 8cc#	.
*	*v	*v	*	*
=43	=43	=43	=43
2C#	2.C# 2.A#	8d#L 8f#	.
.	.	16r	.
.	.	16e#Jk 16g#	.
.	.	8e#L 8g#	.
.	.	8d#J 8f#	.
4FF#	.	8r	.
.	.	8f# 8a#	.
=44	=44	=44	=44
4r	2.C# 2.G#	8c#L 8e#	.
.	.	16r	.
.	.	16d#Jk 16f#	.
4r	.	8d#L 8f#	.
.	.	8c#J 8e#	.
4CC#	.	8r	.
.	.	8a# 8cc#	.
=45	=45	=45	=45
4r	2.C# 2.A#	8d#L 8f#	.
.	.	16r	.
.	.	16e#Jk 16g#	.
4r	.	8e#L 8g#	.
.	.	8d#J 8f#	.
4FF#	.	8r	.
.	.	8f# 8a#	.
=46	=46	=46	=46
4r	2.C# 2.G#	8c#L 8e#	.
.	.	16r	.
.	.	16d#Jk 16f#	.
4r	.	8d#L 8f#	.
.	.	8c#J 8e#	.
4CC#	.	8r	.
.	.	8e# 8g#	.
=47	=47	=47	=47
2GG#	2.D# 2.G#	2.B 2.d#	.
4GG#	.	.	.
*v	*v	*	*
=48	=48	=48
2AA# 2E#	2A# 2c##X	.
4AA# 4En	4G# 4c#X	.
=49	=49	=49
*	*^	*
4AAA# 4AA#	8g#L	4a# 4cc# 4een	.
.	8f#	.	.
[2GG# [2G#	8f#	4a# 4cc# 4ff#	.
.	8en	.	.
.	8e	4a# 4cc# 4gg#	.
.	8c#J	.	.
=50	=50	=50	=50
4GG#] 4G#]	4c# 4en	8a#L	.
.	.	8bJ	.
2AAA# 2AA#	4e 4g#	4cc#	.
.	4c# 4e	4g#	.
=51	=51	=51	=51
2.DD# 2.D#	4g#	8c#L 8a#	.
.	.	8d# 8b	.
.	4g#	8f# 8dd#	.
.	.	8en 8cc#	.
.	4f##X	8d# 8b	.
.	.	8c#J 8a#	.
=52	=52	=52	=52
*	*	*^	*
2.GG# 2.D#	4r	4f##X	8d#L 8b	.
.	.	.	8c#J 8a#	.
.	2B	4g#	4g#	.
.	.	4r	4d#	.
*	*	*v	*v	*
=53	=53	=53	=53
4GGG# 4GG#	8f#XL	4g# 4b 4dd#	.
.	8e#XJ	.	.
[2DD# [2D#	8e#L	4g# 4b 4ee#	.
.	8d#J	.	.
.	8d#L	4g# 4b 4ff#	.
.	8BJ	.	.
=54	=54	=54	=54
4DD#] 4D#]	4B 4f#	8g#L	.
.	.	8a#J	.
2GGG# 2GG#	4d# 4f#	4b	.
.	4B 4d#	4f#	.
=55	=55	=55	=55
2GGG# 2GG#	4f#	8BL 8g#	.
.	.	8c# 8a#	.
.	4f#	8e# 8cc#	.
.	.	8d# 8b	.
4CC# 4C#	4e#	8c# 8a#	.
.	.	8BJ 8g#	.
=56	=56	=56	=56
*^	*	*	*
2r	2FFF# 2FF#	4e#	8c#L 8a#	.
.	.	.	8BJ 8g#	.
.	.	4r	4A# 4f#	.
4FF# 4C#	4F#	4A#	4c#	.
=57	=57	=57	=57	=57
2.FF# 2.C#	4Gn	2.B	8d#L	.
.	.	.	8e#J	.
.	2G#X	.	2c#	.
*v	*v	*	*	*
=58	=58	=58	=58
8c#L	2B	8e#L	.
[8C#J	.	8f#J	.
4FF# 4C#]	.	4c#	.
8c#L	[4B	8d#L 8f#	.
[8C#J	.	8e#J 8g#	.
=59	=59	=59	=59
*	*	*^	*
4FF# 4C#]	4r	4B]	4c#	.
4c#	2B	4f#	8g#L	.
.	.	.	8a#	.
[4C#	.	[4e#	8cc#	.
.	.	.	8c#J	.
=60	=60	=60	=60	=60
*^	*	*	*	*
2.FF#	2C#]	2.A#	4e#]	4a#	.
.	.	.	8d#L	4r	.
.	.	.	8e#	.	.
.	4c#	.	8c#	4r	.
.	.	.	8d#J	.	.
*v	*v	*	*	*	*
=61	=61	=61	=61	=61
4GG#	4G#	4.c#	4e#	.
8AA#L	4F#	.	8d#L	.
8GG#J	.	8B#X	8e#J	.
4C#	8.E#	8.G#	8.c#	.
.	16r	16r	16r	.
*	*	*v	*v	*
=62	=62	=62	=62
8.A#L	2f# 2cc#	4ee#	.
16D#Jk	.	.	.
4A#	.	4dd#	.
4G#	4f# 4b#X	4ee#	.
=63	=63	=63	=63
8.c#L	8.f#L	2.g# 2.cc#	.
16G#Jk	16d#Jk	.	.
2c#	2e#	.	.
=64	=64	=64	=64
*^	*	*	*
4r	8.A#L	2.d# 2.f#	2cc#	.
.	[16G#Jk	.	.	.
4.D#	2G#]	.	.	.
.	.	.	4bn	.
8D#	.	.	.	.
=65	=65	=65	=65	=65
*	*	*	*^	*
4r	8.c#L	2.d#	2f#	4a#	.
.	[16BJk	.	.	.	.
4.D#	2B]	.	.	4g#	.
.	.	.	4r	4d#	.
8D#	.	.	.	.	.
*	*	*	*v	*v	*
=66	=66	=66	=66	=66
4GG#	2.B	4d#	8f#L	.
.	.	.	8g#J	.
[2D#	.	[2f#	4a#	.
.	.	.	8g#L	.
.	.	.	8bJ	.
=67	=67	=67	=67	=67
2D#]	2B	2f#] 2g#	4.ff#	.
.	.	.	8ee#	.
4D#	4A#	4f# 4a#	8dd#L	.
.	.	.	8a#J	.
=68	=68	=68	=68	=68
4r	8.A#L	2.d# 2.f#	2cc#	.
.	[16G#Jk	.	.	.
4.D#	2G#]	.	.	.
.	.	.	4b	.
8D#	.	.	.	.
=69	=69	=69	=69	=69
*	*	*	*^	*
4r	8.c#L	2.d#	2f#	4a#	.
.	[16BJk	.	.	.	.
4.D#	2B]	.	.	4g#	.
.	.	.	4r	4d#	.
8D#	.	.	.	.	.
*	*	*	*v	*v	*
*	*v	*v	*	*
*v	*v	*	*
=70	=70	=70
4GG#	8BL 8f# 8g#	.
.	8c#J 8f# 8a#	.
4G#	4d# 4f# 4b	.
4D#	8c#L 8f# 8a#	.
.	8BJ 8f# 8g#	.
=71	=71	=71
*	*^	*
*	*	*^	*
2.C#	2.B	4f#	8g#L	.
.	.	.	8a#J	.
.	.	2e#	4cc#	.
.	.	.	4c#	.
*	*	*v	*v	*
*	*v	*v	*
=72	=72	=72
4GGG# 4GG#	8BL 8f# 8g#	.
.	8c#J 8f# 8a#	.
4GG# 4G#	4d# 4f# 4b	.
4DD# 4D#	8c#L 8f# 8a#	.
.	8BJ 8f# 8g#	.
=73	=73	=73
4GG# 4G#	8bL 8ff# 8gg#	.
.	8cc#J 8ff# 8aa#	.
4G# 4g#	4dd# 4ff# 4bb	.
4D# 4d#	8cc#L 8ff# 8aa#	.
.	8bJ 8ff# 8gg#	.
*clefG2	*	*
=74	=74	=74
4G# 4g#	8bbL 8fff# 8ggg#	.
.	8ccc# 8fff# 8aaa#	.
4g# 4gg#	8eee# 8fff# 8cccc#	.
.	8ddd# 8fff# 8bbb	.
8.d# 8.dd#	8ccc# 8fff# 8aaa#	.
.	8bbJ 8fff# 8ggg#	.
[16cc#	.	.
=75	=75	=75
4..c# 4..cc#]	8aa#L 8bb 8fff#	.
.	8gg# 8bb 8eee#	.
.	8ff# 8bb 8ddd#	.
.	8ee#J 8bb 8ccc#	.
*clefF4	*	*
[16C#	.	.
4C#] 4c#	8r	.
.	8dd# 8bb 8ddd#	.
=76	=76	=76
2C# 2B 2c#	4f# 4cc# 4dd# 4ff#	.
.	4.g# 4.cc# 4.ee# 4.gg#	.
4FFF# 4FF#	.	.
.	8dd# 8bb 8ddd#	.
=77	=77	=77
2C# 2B 2c#	8g#L 8cc# 8ee# 8gg#	.
.	16r	.
.	16a#Jk 16cc# 16ff# 16aa#	.
.	8a#L 8cc# 8ff# 8aa#	.
.	8g#J 8cc# 8ee# 8gg#	.
4FFF# 4FF#	8r	.
.	8ff# 8ddd# 8fff#	.
=78	=78	=78
4C# 4A# 4c#	4a# 4ff# 4aa#	.
4C# 4G# 4c#	4.b 4.gg# 4.bb	.
4FFF# 4FF#	.	.
.	8ff# 8ddd# 8fff#	.
=79	=79	=79
2C# 2F# 2c#	8cc#L 8aa# 8ccc#	.
.	16r	.
.	16dd#Jk 16bb 16ddd#	.
.	8dd#L 8bb 8ddd#	.
.	8cc#J 8aa# 8ccc#	.
4FFF# 4FF#	8r	.
.	8ff# 8ddd# 8fff#	.
=80	=80	=80
4D# 4d#	8bL 8ff# 8gg# 8bb	.
.	16r	.
.	16cc#Jk 16ff# 16aa# 16ccc#	.
4FF# 4F#	8cc#L 8ff# 8aa# 8ccc#	.
.	8bJ 8ff# 8gg# 8bb	.
4BBB 4BB	8r	.
.	8dd# 8bb 8ddd#	.
=81	=81	=81
16%3C# 16%3c#	8a#L 8ff# 8aa#	.
.	16r	.
16%3FF# 16%3F#	16bJk 16ff# 16gg# 16bb	.
.	8bL 8ff# 8gg# 8bb	.
16%3CC# 16%3C#	8a#J 8ff# 8aa#	.
.	8r	.
16%3FFF# 16%3FF#	.	.
.	8ff# 8ddd# 8fff#	.
=82	=82	=82
4D# 4d#	8bL 8ff# 8gg# 8bb	.
.	16r	.
.	16cc#Jk 16ff# 16aa# 16ccc#	.
4FF# 4F#	8cc#L 8ff# 8aa# 8ccc#	.
.	8bJ 8ff# 8gg# 8bb	.
4BBB 4BB	8r	.
.	8dd# 8bb 8ddd#	.
=83	=83	=83
16%3C# 16%3c#	8a#L 8ff# 8aa#	.
.	16r	.
16%3FF# 16%3F#	16bJk 16ff# 16gg# 16bb	.
.	8bL 8ff# 8gg# 8bb	.
16%3CC# 16%3C#	8a#J 8ff# 8aa#	.
.	8r	.
16%3FFF# 16%3FF#	.	.
.	8ff# 8ddd# 8fff#	.
=84	=84	=84
4D# 4d#	8bL 8ff# 8gg# 8bb	.
.	16r	.
.	16cc#Jk 16ff# 16aa# 16ccc#	.
4FF# 4F#	8cc#L 8ff# 8aa# 8ccc#	.
.	8bJ 8ff# 8gg# 8bb	.
4BBB 4BB	8r	.
.	8bb 8ggg# 8bbb	.
=85	=85	=85
4F# 4f#	8dd#L 8bb 8ddd#	.
.	16r	.
.	16ee#Jk 16ccc# 16eee#	.
4BB 4B	8ee#L 8ccc# 8eee#	.
.	8dd#J 8bb 8ddd#	.
4FF# 4F#	8r	.
.	8ddd# 8bbb 8dddd#	.
=86	=86	=86
4G# 4g#	8ff#L 8ddd# 8fff#	.
.	16r	.
.	16gg#Jk 16eee# 16ggg#	.
4F# 4f#	8gg#L 8eee# 8ggg#	.
.	8ff#J 8ddd# 8fff#	.
4BB 4B	8r	.
.	8fff# 8dddd# 8ffff#	.
*clefG2	*	*
=87	=87	=87
4f# 4ff#	8bbL 8fff# 8ggg# 8bbb	.
.	16r	.
.	16ccc#Jk 16fff# 16aaa# 16cccc#	.
4d# 4dd#	8ccc#L 8fff# 8aaa# 8cccc#	.
.	8bbJ 8fff# 8ggg# 8bbb	.
4F# 4f#	8r	.
.	8ddd# 8bbb 8dddd#	.
*clefF4	*	*
=88	=88	=88
*	*^	*
4FFF# 4FF#	8bbbL	4fff# 4cccc# 4ffff#	.
.	8aaa#J	.	.
4CC# 4C#	4ggg#	8cccc#L	.
.	.	8ccc#J	.
4FF# 4F#	8bbL	4ff# 4ccc# 4fff#	.
.	8aa#J	.	.
=89	=89	=89	=89
4C# 4c#	4gg#	8ccc#L	.
.	.	8cc#J	.
4F# 4f#	8bL	4f# 4cc# 4ff#	.
.	8a#J	.	.
*clefG2	*	*	*
8c# 8cc#	8g#L	4cc#	.
8r	8c#J	.	.
*	*v	*v	*
=90	=90	=90
2.f# 2.a# 2.ff#	2.F# 2.c# 2.f#	.
*clefF4	*	*
=91	=91	=91
2.FF# 2.C# 2.F#	2.A# 2.c# 2.f# 2.a#	.
=92	=92	=92
2.FF# 2.C# 2.F#	2.A# 2.c# 2.f# 2.a#	.
==	==	==
*-	*-	*-
!!!system-decoration: {(*)}
!!!filter: flipper -a
!!!RDF**dynam: > = dim.
!!!ENC: Bryan Jacob Bell
!!!END: November 2021 to April 2022
!!!PED: Günter Philipp
!!!PTL: Ausgewählte Klavierwerke (Edition Peters)
